X: 56
T:Patrick's Night
M:C|
C:Paddy O'Brien
S:Dan Cummins and Bev Buchannan
R:Reel
K:G
BG~G2 AGEF|GABd egge|dB~B2 gedB|~A2GB AGEG|
BG~G2 AGEF|GABd egge|dB~B2 gedB|1AGAB ~G3A:|2AGAB G4||
~g3a gedB|GB~B2 GABd|~g2fa gedg|eA (3B^cd eaae|
gbaf ~g3e|dB~B2 eBdB|GA (3B^cd gedB|1AGAB G4:|2AGAB ~G3A||

